X:68
T:Steam Packet Hornpipe,1st part. JNu.12
T:Steamboat,The,aka. JNu.12
M:4/4
L:1/8
Q:160
S:James Nuttall MS,c1830,Rossendale,East Lancs.
R:Hornpipe
O:England
A:East Lancashire
Z:vmp.Manchester Morris Men
K:G
"primo"d2|g2 bg d2 gd|B2 dB G2 GG|FGAB cdcd|c2 B2 B2 d2|!
g2 bg d2 gd|B2 dB G2 B2|cdec BcAB|G2 G2 G2::!
Bc|d^cd^c dBGB|=cBcB cAFA|GABc defg|agfe dcBA|!
d^cd^c dBGB|=cBcB cAFA|GABc BcAF|G2 G2 G2:|]
